public/img/pmo-bg.svg

<svg width="363" height="368" viewBox="0 0 363 368" fill="none" xmlns="http://www.w3.org/2000/svg">
<path d="M354.117 237.587C349.215 252.672 342.358 267.049 333.719 280.352L332.171 279.347C340.722 266.18 347.51 251.948 352.362 237.016L354.117 237.587Z" fill="#FDCD24"/>
<path d="M203.619 361.647C187.876 363.58 171.947 363.441 156.24 361.234L156.497 359.406C172.044 361.592 187.811 361.729 203.394 359.816L203.619 361.647Z" fill="#FDCD24"/>
<path d="M29.2813 280.352C20.6425 267.049 13.7847 252.672 8.88324 237.587L10.6381 237.016C15.4897 251.948 22.2778 266.18 30.8288 279.347L29.2813 280.352Z" fill="#FDCD24"/>
<path d="M53.1601 53.1601C64.3759 41.9443 77.0135 32.2471 90.75 24.3164L91.6726 25.9143C78.0758 33.7645 65.5666 43.3631 54.4648 54.4648L53.1601 53.1601Z" fill="#FDCD24"/>
<path d="M272.25 24.3164C285.986 32.2472 298.624 41.9444 309.84 53.1602L308.535 54.4649C297.433 43.3631 284.924 33.7645 271.327 25.9143L272.25 24.3164Z" fill="#FDCD24"/>
<path d="M310 47L310 55L302 55" stroke="#FDCD24" stroke-width="2"/>
<path d="M340 280L332 280L332 272" stroke="#FDCD24" stroke-width="2"/>
<path d="M160 366.928L156 360L162.928 356" stroke="#FDCD24" stroke-width="2"/>
<path d="M5 242.928L9 236L15.9282 240" stroke="#FDCD24" stroke-width="2"/>
<path d="M84 24H92V32" stroke="#FDCD24" stroke-width="2"/>
</svg>

<svg width="363" height="368" fill="none" xmlns="http://www.w3.org/2000/svg"><path d="M354.117 237.587a181.521 181.521 0 0 1-20.398 42.765l-1.548-1.005a179.662 179.662 0 0 0 20.191-42.331l1.755.571Zm-150.498 124.06a181.521 181.521 0 0 1-47.379-.413l.257-1.828a179.626 179.626 0 0 0 46.897.41l.225 1.831ZM29.281 280.352a181.508 181.508 0 0 1-20.398-42.765l1.755-.571a179.645 179.645 0 0 0 20.19 42.331l-1.547 1.005ZM53.16 53.16a181.497 181.497 0 0 1 37.59-28.844l.923 1.598a179.661 179.661 0 0 0-37.208 28.55L53.16 53.16Zm219.09-28.844a181.52 181.52 0 0 1 37.59 28.844l-1.305 1.305a179.66 179.66 0 0 0-37.208-28.55l.923-1.599Z" fill="#FDCD24"/><path d="M310 47v8h-8m38 225h-8v-8m-172 94.928L156 360l6.928-4M5 242.928 9 236l6.928 4M84 24h8v8" stroke="#FDCD24" stroke-width="2"/></svg>
